src/images/global/icons/utility/clip.svg

<?xml version="1.0" encoding="UTF-8"?>
<svg width="48px" height="48px" viewBox="0 0 48 48" version="1.1" xmlns="http://www.w3.org/2000/svg" xmlns:xlink="http://www.w3.org/1999/xlink">
    <!-- Generator: Sketch 46.2 (44496) - http://www.bohemiancoding.com/sketch -->
    <title>icon/Utility/clip</title>
    <desc>Created with Sketch.</desc>
    <defs>
        <path d="M20.4748966,4.30461902 C20.4748966,4.30461902 19.3492922,3.14307972 17.9134153,3.14318291 C17.8062716,3.14318291 17.6971779,3.14968348 17.5867842,3.16361329 C15.8094342,3.38793473 13.018282,4.63718019 8.55800679,8.01923345 L7.25798245,6.78102864 C8.55800679,5.13008889 7.47465317,2.44731181 6.49963492,1.5186582 C5.57120087,0.507973523 4.31786907,0 3.18717291,0 C2.4708595,0 1.80373034,0.203891059 1.29953757,0.612911381 C0.432854674,1.17639775 -1.51165673,4.64244257 2.64560443,8.09362892 L5.41628131,10.4956431 C5.41628131,10.4956431 1.32499638,13.5414205 0.408045876,15.3494059 C-0.0791382447,16.4388198 -0.131680895,17.5053269 0.259084754,18.351743 C0.32527766,18.4980576 0.534798249,18.8819011 0.641833586,19.0162463 C1.10583394,19.5869555 1.99472558,20 3.06692065,20 C4.01518007,20 5.10698385,19.6768285 6.17473717,18.8535255 C8.66645049,16.6866671 7.69143223,13.9007063 7.69143223,13.9007063 L8.55811513,13.2257815 L9.65631069,14.1396798 C9.81318029,14.3058056 10.1083941,14.5198087 10.724714,14.5198087 L15.7081407,14.5198087 L11.7107825,10.875256 L20.4748966,4.30461902 L20.4748966,4.30461902 Z M5.26547848,5.95174097 C5.05714958,6.10919935 4.79866141,6.19236544 4.51774782,6.19236544 C3.87293574,6.19236544 3.13463026,5.74083342 2.59111175,5.01390401 C1.7947385,3.94863514 1.72453719,2.79173911 2.42427529,2.26292247 C2.63249585,2.10556728 2.89098403,2.022298 3.17189762,2.022298 C3.81670969,2.022298 4.55501518,2.47383003 5.09853369,3.20075943 C5.89501527,4.26592512 5.96521658,5.42282115 5.26547848,5.95174097 L5.26547848,5.95174097 Z M5.11814239,17.0671055 C4.54667336,17.7038524 3.83491003,18.0840844 3.21436508,18.0840844 C3.21425675,18.0840844 3.21436508,18.0840844 3.21425675,18.0840844 C2.88296721,18.0840844 2.59013673,17.9775988 2.36739923,17.7762873 C1.71955376,17.1906165 1.89668208,16.044142 2.78871545,15.0501731 C3.36029281,14.4133231 4.07205614,14.0331942 4.69260109,14.0331942 C5.02399896,14.0331942 5.31682944,14.1395766 5.53956695,14.3409913 C6.18741241,14.9266622 6.01017576,16.0732398 5.11814239,17.0671055 Z M25.3499878,14.5198087 L23.8332928,14.5198087 C23.4742694,14.5198087 23.1832806,14.242554 23.1832806,13.9007063 C23.1832806,13.5587554 23.4742694,13.2816039 23.8332928,13.2816039 L25.3499878,13.2816039 C25.7090112,13.2816039 26,13.5587554 26,13.9007063 C26,14.242554 25.7090112,14.5198087 25.3499878,14.5198087 Z M21.7749209,14.5198087 L20.2582258,14.5198087 C19.8992024,14.5198087 19.6082137,14.242554 19.6082137,13.9007063 C19.6082137,13.5587554 19.8992024,13.2816039 20.2582258,13.2816039 L21.7749209,13.2816039 C22.1339443,13.2816039 22.4249331,13.5587554 22.4249331,13.9007063 C22.4249331,14.242554 22.1339443,14.5198087 21.7749209,14.5198087 Z M18.199854,14.5198087 L16.6831589,14.5198087 C16.3241355,14.5198087 16.0331467,14.242554 16.0331467,13.9007063 C16.0331467,13.5587554 16.3241355,13.2816039 16.6831589,13.2816039 L18.199854,13.2816039 C18.5588774,13.2816039 18.8498661,13.5587554 18.8498661,13.9007063 C18.8498661,14.242554 18.5588774,14.5198087 18.199854,14.5198087 Z" id="path-1"></path>
    </defs>
    <g id="Symbols" stroke="none" stroke-width="1" fill="none" fill-rule="evenodd">
        <g id="icon/Utility/clip">
            <g id="Icon" transform="translate(11.000000, 14.000000)">
                <mask id="mask-2" fill="white">
                    <use xlink:href="#path-1"></use>
                </mask>
                <use id="Mask" fill="#384048" xlink:href="#path-1"></use>
                <g id="Color/Grayscale/Night-Sky" mask="url(#mask-2)" fill="#111111">
                    <g transform="translate(-11.000000, -14.000000)" id="Swatch">
                        <rect x="0" y="0" width="48" height="48"></rect>
                    </g>
                </g>
            </g>
        </g>
    </g>
</svg>

<?xml version="1.0" encoding="utf-8"?>
<!-- Generator: Adobe Illustrator 21.0.2, SVG Export Plug-In . SVG Version: 6.00 Build 0)  -->
<svg version="1.1" id="icon_x2F_Utility_x2F_clip-Layer_1" xmlns="http://www.w3.org/2000/svg" xmlns:xlink="http://www.w3.org/1999/xlink" x="0px" y="0px"
	 viewBox="0 0 48 48" style="enable-background:new 0 0 48 48;" xml:space="preserve">
<title>icon/Utility/clip</title>
<desc>Created with Sketch.</desc>
<g id="icon_x2F_Utility_x2F_clip-Symbols">
	<g id="icon_x2F_Utility_x2F_clip">
		<g id="icon_x2F_Utility_x2F_clip-Icon" transform="translate(11.000000, 14.000000)">
			<g id="icon_x2F_Utility_x2F_clip-Mask">
				<path id="icon_x2F_Utility_x2F_clip-path-1_1_" style="fill:#384048;" d="M20.5,4.3c0,0-1.1-1.2-2.6-1.2c-0.1,0-0.2,0-0.3,0C15.8,3.4,13,4.6,8.6,8L7.3,6.8
					c1.3-1.7,0.2-4.3-0.8-5.3C5.6,0.5,4.3,0,3.2,0C2.5,0,1.8,0.2,1.3,0.6c-0.9,0.6-2.8,4,1.3,7.5l2.8,2.4c0,0-4.1,3-5,4.9
					c-0.5,1.1-0.5,2.2-0.1,3c0.1,0.1,0.3,0.5,0.4,0.7c0.5,0.6,1.4,1,2.4,1c0.9,0,2-0.3,3.1-1.1c2.5-2.2,1.5-5,1.5-5l0.9-0.7l1.1,0.9
					c0.2,0.2,0.5,0.4,1.1,0.4h5l-4-3.6L20.5,4.3L20.5,4.3z M5.3,6C5.1,6.1,4.8,6.2,4.5,6.2C3.9,6.2,3.1,5.7,2.6,5
					C1.8,3.9,1.7,2.8,2.4,2.3C2.6,2.1,2.9,2,3.2,2c0.6,0,1.4,0.5,1.9,1.2C5.9,4.3,6,5.4,5.3,6L5.3,6z M5.1,17.1
					c-0.6,0.6-1.3,1-1.9,1c0,0,0,0,0,0c-0.3,0-0.6-0.1-0.8-0.3c-0.6-0.6-0.5-1.7,0.4-2.7c0.6-0.6,1.3-1,1.9-1c0.3,0,0.6,0.1,0.8,0.3
					C6.2,14.9,6,16.1,5.1,17.1z M25.3,14.5h-1.5c-0.4,0-0.7-0.3-0.7-0.6c0-0.3,0.3-0.6,0.7-0.6h1.5c0.4,0,0.7,0.3,0.7,0.6
					C26,14.2,25.7,14.5,25.3,14.5z M21.8,14.5h-1.5c-0.4,0-0.7-0.3-0.7-0.6c0-0.3,0.3-0.6,0.7-0.6h1.5c0.4,0,0.7,0.3,0.7,0.6
					C22.4,14.2,22.1,14.5,21.8,14.5z M18.2,14.5h-1.5c-0.4,0-0.7-0.3-0.7-0.6c0-0.3,0.3-0.6,0.7-0.6h1.5c0.4,0,0.7,0.3,0.7,0.6
					C18.8,14.2,18.6,14.5,18.2,14.5z"/>
			</g>
			<defs>
				<filter id="icon_x2F_Utility_x2F_clip-Adobe_OpacityMaskFilter" filterUnits="userSpaceOnUse" x="-11" y="-14" width="48" height="48">
					<feColorMatrix  type="matrix" values="1 0 0 0 0  0 1 0 0 0  0 0 1 0 0  0 0 0 1 0"/>
				</filter>
			</defs>
			<mask maskUnits="userSpaceOnUse" x="-11" y="-14" width="48" height="48" id="icon_x2F_Utility_x2F_clip-mask-2">
				<g style="filter:url(#icon_x2F_Utility_x2F_clip-Adobe_OpacityMaskFilter);">
					<path id="icon_x2F_Utility_x2F_clip-path-1" style="fill:#FFFFFF;" d="M20.5,4.3c0,0-1.1-1.2-2.6-1.2c-0.1,0-0.2,0-0.3,0C15.8,3.4,13,4.6,8.6,8L7.3,6.8
						c1.3-1.7,0.2-4.3-0.8-5.3C5.6,0.5,4.3,0,3.2,0C2.5,0,1.8,0.2,1.3,0.6c-0.9,0.6-2.8,4,1.3,7.5l2.8,2.4c0,0-4.1,3-5,4.9
						c-0.5,1.1-0.5,2.2-0.1,3c0.1,0.1,0.3,0.5,0.4,0.7c0.5,0.6,1.4,1,2.4,1c0.9,0,2-0.3,3.1-1.1c2.5-2.2,1.5-5,1.5-5l0.9-0.7
						l1.1,0.9c0.2,0.2,0.5,0.4,1.1,0.4h5l-4-3.6L20.5,4.3L20.5,4.3z M5.3,6C5.1,6.1,4.8,6.2,4.5,6.2C3.9,6.2,3.1,5.7,2.6,5
						C1.8,3.9,1.7,2.8,2.4,2.3C2.6,2.1,2.9,2,3.2,2c0.6,0,1.4,0.5,1.9,1.2C5.9,4.3,6,5.4,5.3,6L5.3,6z M5.1,17.1
						c-0.6,0.6-1.3,1-1.9,1c0,0,0,0,0,0c-0.3,0-0.6-0.1-0.8-0.3c-0.6-0.6-0.5-1.7,0.4-2.7c0.6-0.6,1.3-1,1.9-1
						c0.3,0,0.6,0.1,0.8,0.3C6.2,14.9,6,16.1,5.1,17.1z M25.3,14.5h-1.5c-0.4,0-0.7-0.3-0.7-0.6c0-0.3,0.3-0.6,0.7-0.6h1.5
						c0.4,0,0.7,0.3,0.7,0.6C26,14.2,25.7,14.5,25.3,14.5z M21.8,14.5h-1.5c-0.4,0-0.7-0.3-0.7-0.6c0-0.3,0.3-0.6,0.7-0.6h1.5
						c0.4,0,0.7,0.3,0.7,0.6C22.4,14.2,22.1,14.5,21.8,14.5z M18.2,14.5h-1.5c-0.4,0-0.7-0.3-0.7-0.6c0-0.3,0.3-0.6,0.7-0.6h1.5
						c0.4,0,0.7,0.3,0.7,0.6C18.8,14.2,18.6,14.5,18.2,14.5z"/>
				</g>
			</mask>
			<g id="icon_x2F_Utility_x2F_clip-Color_x2F_Grayscale_x2F_Night-Sky" style="mask:url(#icon_x2F_Utility_x2F_clip-mask-2);">
				<g id="icon_x2F_Utility_x2F_clip-Swatch" transform="translate(-11.000000, -14.000000)">
					<rect style="fill:#111111;" width="48" height="48"/>
				</g>
			</g>
		</g>
	</g>
</g>
</svg>
